X:1
T:Road House Ramble
C:Music by Reg Bouvette
C:Arrangement by Patti Kusturok
L:1/8
M:4/4
I:linebreak $
K:G
V:1 treble
V:1
 (3D/E/F/ GB |: d2 d>d dg fe | B2 B>B B(3D/E/F/ GB | d2 d>d dg fe |"D7" c2 c2 D FA |$ %5
 d2 d>d dc AG | F2 F>F FD FA | d2 f2 e2 c2 | B2 B3 (3D/E/F/ GB | d2 d>d dg fe |$ B2 B3 D D^D | %11
"E7" E2 ^GB e2 d2 |"Am" c2 c3 c (Bc) | a2 g2 f2 e2 |"G" g2 d>d dB dg | %15
